!!!COM: Josephine Lang
!!!CNT: Deutsch
!!!TXO: Deutsch
!!!OTL: "Zu Tod mo2cht ich mich lieben"
!!!LYR: Reinhold
!!!OPS: Op. 27
!!!ONM: No. 6
!!!ENC: Alyona Dzerbina, phrasing by LVH
!!!YOR: Josephine Lang: Selected Songs
!!!YOR: Da Capo Press, 1982
!!!ODT: 1841/
!!NB: Vocal melody only encoded.
**kern
*staff1
*clefG2
*k[b-e-a-]
*M3/4
*MM[Ma2ssig und Ausdrucksvoll]
=0
2r
{8.e-
16e-
=1
(4e-
8d)
8d
8.cc
16cc
=2
(4cc
4b-)}
{8.b-
16g
=3
8e-
8d
(4c
8.b-)
16a-
=4
4g
4f}
{8.e-
16e-
=5
(4e-
16d)
16r
8d
8.cc
16cc
=6
(4cc
4b-)}
{8g
8an
=7
8b-
8cc
4dd
4ee-
=8
4dd
(4.cc
8g)
=9
4.b-
8an
8.g
16a
=10
(4an
4b-)}
4r
=11
{8f
8e-
4.d
8e-
=12
8.f
16b-
2dd}
=13
{8ee-
8b-
8b-
8b-
12b-
12a-
12g
=14
4g
4f}
4r
=15
{8f
8e-
4.d
8f
=16
8b-
8dd
2ff}
=17
{8ee-
8b-
8b-
8b-
12cc
8a-
24g
=18
4g
4f}
4r
=19
{8.g
16an
(4b-
8f)
8r
=20
8.cc
16dd
2ee-}
=21
{8f
8f
8f
16r
16f
8cc
8a-
=22
4g
4f}
4r
=23
{8g
8an
4b-
8r
8b-
=24
12dd
12r
12gg
(2ff#
=25
8ff)
16r
16ee-
8dd
8cc
12cc
12b-
12an
=26
4dd
8g}
8r
4r
=27
2.r
=28
2.r
=29
{8f
8e-
4.d
8e-
=30
8f
8b-
2dd}
=31
{(8ee-
8b-)
8b-
8b-
12b-
8a-
24g
=32
4g
4f}
4r
=33
{8f
8e-
4.d
8f
=34
8b-
8dd
2ff}
=35
{8ee-
8b-
8g
8f
8e-
16r
16d-
=36
8c
8cc
4.cc
8b-
=37
8.an
16g
4f
8.r
16ee-
=38
4ee-
4dd}
8r
{8cc
=39
8bn
8an
4g
4ff
=40
4ee-
4dd
4cc
=41
8r
8f
[4g
12g]
12f
12e-
=42
4b-}
4r
{8e-
16r
16e-
=43
(4e-
8d)
8d
8.cc
16cc
=44
(4cc
8b-)}
8r
{8b-
8g
=45
8e-
16r
16d
(4c
8.b-)
16a-
=46
4g
4f}
4r
=47
2.r
=48
4r
8r
{8g
8.g
16an
=49
2b-}
4r
=50
4r
8r
{8b-
8.cc
16dd
=51
2ee-}
4r
=52
2.r
=53
{8ee-
8ee-
(4.ee-
8an)
=54
2an
4a
=55
(4a-
4.ff)
8a-
=56
2a-}
4r
=57
{8g
16r
16a-
8b-
8cc
8dd
8ee-
=58
4gg
4ff}
8r
{8ee-
=59
(4dd
4aa-)
8.r
16aa-
=60
4aa-
4gg}
4r
=61
{8g
8a-
8b-
8cc
8dd
8ee-
=62
(4gg
8ff)
8r
4ee-
=63
4dd
4bb-
8dd
8dd
=64
2.ee-}
=65
2.r
=66
2.r
=67
2.r
=68
2.r
=69
2.r
=70
2.r
=71
2.r
=72
2.r
==
*-
